X:5655
T:Galway Rambler, The
R:reel
D:Terry Bingham
Z:id:hn-reel-485
M:C|
K:G
G2dG eGdG|~G2dG AGEF|GFGA BABd|1 gedB AGEF:|2 gedB A2Bd||
~g3b agab|gabg agef|~g3b agab|gedB A2Bd|
~g3b agab|gabg a2ga|bgab gede|gedB AGEF||
"variations"
~g3d egdB|GBdB AGEF|GFGA BABd|gedB AGEF|
~G3d eBdB|~G2dB AGEF|~G3A BABd|gedB A2Bd||
g2bg agab|g2bg agef|g2bg agab|gedB A2Bd|
g2bg agab|gabg ageg|bg~g2 eg~g2|gedB AGEF||


